packages/symbols/svgs/duotone/rectangle-barcode-duotone.svg

<svg width="24" height="24" viewBox="0 0 24 24" fill="none" xmlns="http://www.w3.org/2000/svg">
<path fill-rule="evenodd" clip-rule="evenodd" d="M1 0C1.55228 0 2 0.447715 2 1V23C2 23.5523 1.55228 24 1 24C0.447715 24 0 23.5523 0 23L0 1C0 0.447715 0.447715 0 1 0ZM23 0C23.5523 0 24 0.447715 24 1V23C24 23.5523 23.5523 24 23 24C22.4477 24 22 23.5523 22 23V1C22 0.447715 22.4477 0 23 0ZM13 1C13 0.447715 12.5523 0 12 0C11.4477 0 11 0.447715 11 1V18C11 18.5523 11.4477 19 12 19C12.5523 19 13 18.5523 13 18V1ZM15 1C15 0.447715 15.4477 0 16 0L19 0C19.5523 0 20 0.447715 20 1V18C20 18.5523 19.5523 19 19 19H16C15.4477 19 15 18.5523 15 18V1ZM17 2V17H18V2H17ZM5 0C4.44772 0 4 0.447715 4 1V18C4 18.5523 4.44772 19 5 19H8C8.55228 19 9 18.5523 9 18V1C9 0.447715 8.55228 0 8 0L5 0ZM6 17V2H7V17H6Z" fill="black"/>
</svg>

<svg width="24" height="24" viewBox="0 0 24 24" xmlns="http://www.w3.org/2000/svg"><path fill-rule="evenodd" clip-rule="evenodd" d="M1 0a1 1 0 0 1 1 1v22a1 1 0 1 1-2 0V1a1 1 0 0 1 1-1Zm22 0a1 1 0 0 1 1 1v22a1 1 0 1 1-2 0V1a1 1 0 0 1 1-1ZM13 1a1 1 0 1 0-2 0v17a1 1 0 1 0 2 0V1Zm2 0a1 1 0 0 1 1-1h3a1 1 0 0 1 1 1v17a1 1 0 0 1-1 1h-3a1 1 0 0 1-1-1V1Zm2 1v15h1V2h-1ZM5 0a1 1 0 0 0-1 1v17a1 1 0 0 0 1 1h3a1 1 0 0 0 1-1V1a1 1 0 0 0-1-1H5Zm1 17V2h1v15H6Z"/></svg>
